common/icons/svgs/cookies.svg

<svg xmlns="http://www.w3.org/2000/svg" width="24" height="24" viewBox="0 0 24 24">
  <g fill="none" fill-rule="evenodd" transform="translate(-456 -108)">
    <rect width="504" height="450" fill="#FFF"/>
    <g transform="translate(456 108)">
      <rect width="24" height="24"/>
      <g fill="#000" fill-rule="nonzero" transform="translate(1 1)">
        <path d="M21.51,10.94 C21.5021399,10.4837365 21.1540506,10.1055654 20.7,10.06 C19.2302136,9.91414859 17.974348,8.93822825 17.47,7.55 C17.3794818,7.29608861 17.1799175,7.09611982 16.9261899,7.00508778 C16.6724623,6.91405574 16.3912903,6.9415466 16.16,7.08 C15.5721591,7.43736316 14.8979384,7.62752798 14.21,7.63 C12.0892266,7.63 10.37,5.91077344 10.37,3.79 C10.376528,3.19407252 10.5238696,2.60813272 10.8,2.08 C10.9475911,1.78378795 10.9207084,1.43047187 10.73,1.16 C10.5456486,0.883189598 10.2196162,0.735698723 9.89,0.78 C4.32908342,1.43015013 0.275925155,6.35853217 0.711600448,11.9403487 C1.14727574,17.5221652 5.91603512,21.7619736 11.5104827,21.5414185 C17.1049303,21.3208635 21.5251081,16.7187911 21.52,11.12 C21.52,11.12 21.52,11 21.51,10.94 L21.51,10.94 Z M11.1,19.74 C6.82518666,19.7276044 3.20523356,16.5840968 2.59366394,12.3532382 C1.98209432,8.12237945 4.56368196,4.08244068 8.66,2.86 C8.60623844,3.16707058 8.57946953,3.47825914 8.58,3.79 C8.58550417,6.90260323 11.1073968,9.42449583 14.22,9.43 C14.9038299,9.43161392 15.5820067,9.30615121 16.22,9.06 C16.9849419,10.3803689 18.2506136,11.3359331 19.73,11.71 C19.4142714,16.240432 15.641407,19.7509883 11.1,19.74 L11.1,19.74 Z"/>
        <circle cx="5.78" cy="10.24" r="1.25"/>
        <circle cx="15.26" cy="3.8" r="1.25"/>
        <circle cx="9.63" cy="11.6" r="1.25"/>
        <circle cx="12.49" cy="16.11" r="1.25"/>
      </g>
    </g>
  </g>
</svg>

<svg xmlns="http://www.w3.org/2000/svg" viewbox="0 0 24 24"><g class="icon__shape" fill-rule="nonzero" transform="translate(1 1)"><path d="M21.51 10.94a.9.9 0 0 0-.81-.88 3.84 3.84 0 0 1-3.23-2.51.9.9 0 0 0-1.31-.47 3.78 3.78 0 0 1-1.95.55 3.84 3.84 0 0 1-3.84-3.84 3.78 3.78 0 0 1 .43-1.71.9.9 0 0 0-.07-.92.87.87 0 0 0-.84-.38 10.42 10.42 0 1 0 11.63 10.34s0-.12-.01-.18zm-10.41 8.8A8.62 8.62 0 0 1 8.66 2.86a5.34 5.34 0 0 0-.08.93 5.65 5.65 0 0 0 5.64 5.64 5.52 5.52 0 0 0 2-.37 5.66 5.66 0 0 0 3.51 2.65 8.63 8.63 0 0 1-8.63 8.03z"/><circle cx="5.78" cy="10.24" r="1.25"/><circle cx="15.26" cy="3.8" r="1.25"/><circle cx="9.63" cy="11.6" r="1.25"/><circle cx="12.49" cy="16.11" r="1.25"/></g></svg>
